!!!COM: Bach, Johann Sebastian
!!!CDT: 1685/3//-1750/7/28/
!!!OTL@@DE: Der Tag, der ist so freudenreich
!!!OTL@EN: This day is so joyful
!!!AGN: 4-Part Chorale
!!!SCT: BH 158
!!!SCT: BWV 294
**harm	**root	**kern	**kern	**kern	**kern
!	!	!bass	!tenor	!alto	!soprno
*	*Iorgan	*Iorgan	*Iorgan	*Iorgan	*Iorgan
*k[f#c#]	*k[f#c#]	*k[f#c#]	*k[f#c#]	*k[f#c#]	*k[f#c#]
*D:	*D:	*D:	*D:	*D:	*D:
*M4/4	*M4/4	*M4/4	*M4/4	*M4/4	*M4/4
*met(c)	*met(c)	*met(c)	*met(c)	*met(c)	*met(c)
*MM60	*MM60	*MM60	*MM60	*MM60	*MM60
*>[A,A,B]	*>[A,A,B]	*>[A,A,B]	*>[A,A,B]	*>[A,A,B]	*>[A,A,B]
*>A	*>A	*>A	*>A	*>A	*>A
I	4GG	8D	4F#	4A	4d
.	.	8C#	.	.	.
=1	=1	=1	=1	=1	=1
vi	4EE	8BB	4F#	4B	4d
.	.	8AA	.	.	.
IV	4CC	8GG	4G	4.B	4d
.	.	8FF#	.	.	.
ii	4AA	4EE	4G	.	4e
.	.	.	.	8c#	.
V7/IV	4GG	4DD	8A	4d	4f#
.	.	.	8c	.	.
=2	=2	=2	=2	=2	=2
IV	4CC	4GG	4B	4.d	8g
.	.	.	.	.	8f#
V	4DD	4AA	8E	.	4e
.	.	.	16A	8c#	.
.	.	.	16G	.	.
I;	2GG;	2DD;	2F#;	2A;	2d;
=3	=3	=3	=3	=3	=3
V	4DD	4AA	4A	4c#	4e
ii	8AA	8EE	8G	8B	4e
vii7/IV	8BB	8FF#	[8F#	8A	.
ii	4AA	4GG	8F#]	[4B	4B
.	.	.	[8E	.	.
V	4DD	4AA	8E]	8B]	4c#
.	.	.	16F#	16A	.
.	.	.	16E	16G	.
=4	=4	=4	=4	=4	=4
vi	4EE	4BB	4.D	8F#	4d
.	.	.	.	8D	.
V	4DD	4AA	.	4A	4e
.	.	.	8C#	.	.
I;	4GG;	4DD;	4F#;	4A;	4d;
=:|!	=:|!	=:|!	=:|!	=:|!	=:|!
*>B	*>B	*>B	*>B	*>B	*>B
I	4GG	4D	4F#	4A	4d
=5	=5	=5	=5	=5	=5
V7b	4DD	4C#	8E	4A	4a
.	.	.	8G	.	.
I	8GG	8D	8F#	8d	4a
Vb	8DD	8C#	8E	8e	.
vi	4EE	4BB	4D	8f#	4b
.	.	.	.	8g	.
Vb	4DD	4C#	4A	8f#	8a
.	.	.	.	8e	8g
!!linebreak: 3
=6	=6	=6	=6	=6	=6
I	4GG	8D	4A	4d	4f#
.	.	8C#	.	.	.
viib/V	4CC#	4BB	4B	4d	4g#
V;	4DD;	4AA;	4c#;	4e;	4a;
Vb	4DD	4C#	8A	4e	4a
.	.	.	8G	.	.
=7	=7	=7	=7	=7	=7
I	4GG	8D	8F#	4d	4a
.	.	8E	8G	.	.
Ib	4GG	8F#	8A	4d	4a
.	.	8D	8F#	.	.
IV	4CC	4G	8G	4d	4b
.	.	.	8F#	.	.
Vb	4DD	4C#	8E	[4e	8a
.	.	.	8A	.	8g
=8	=8	=8	=8	=8	=8
I	4GG	4D	4A	8e]	4f#
.	.	.	.	4d	.
V	4DD	4AA	8.A	.	4e
.	.	.	.	8c#	.
.	.	.	16G	.	.
I;	2GG;	2DD;	2F#;	2A;	2d;
=9	=9	=9	=9	=9	=9
IV	4CC	8GG	4D	4G	4B
.	.	8FF#	.	.	.
viib	4FF#	4EE	4E	4G	4c#
Ib	4GG	4FF#	8AA	8A	4d
.	.	.	4D	4F#	.
vii7/V	8CC#	4GG#	.	.	4B
Vb/V	8AA	.	16C#	8E	.
.	.	.	16BB	.	.
=10	=10	=10	=10	=10	=10
V	4DD	4AA	4C#	8E	4A
.	.	.	.	8F#	.
V7/V	4AA	4EE	8BB	4E	4G#
.	.	.	16C#	.	.
.	.	.	16D	.	.
V;	2DD;	2AAA;	2C#;	2E;	2A;
!!linebreak: 3
=11	=11	=11	=11	=11	=11
vi	4EE	8BB	4F#	4B	4d
.	.	8AA	.	.	.
IV	4CC	8GG	4G	4B	4d
.	.	8FF#	.	.	.
ii	8AA	4EE	4G	8B	4e
viib	8FF#	.	.	8c#	.
V7/IV	4GG	4DD	8A	4d	4f#
.	.	.	8c	.	.
=12	=12	=12	=12	=12	=12
IV	4CC	4GG	4B	4.d	8g
.	.	.	.	.	8f#
V	4DD	4AA	8E	.	4e
.	.	.	16A	8c#	.
.	.	.	16G	.	.
I;	2GG;	2DD;	2F#;	2A;	2d;
=13	=13	=13	=13	=13	=13
V	4DD	8AAA	8C#	4A	4e
.	.	8BBB	8D	.	.
Vb	4DD	8CC#	4E	4A	4e
.	.	8DD	.	.	.
V/V	4AA	8EE	4E	4G#	4B
.	.	8DD	.	.	.
Vb	4DD	4CC#	4E	4A	4c#
=14	=14	=14	=14	=14	=14
vi7b	4EE	4BBB	4F#	4A	8d
.	.	.	.	.	8c#
V/V	4AA	4EE	8BB	4G#	4B
.	.	.	16E	.	.
.	.	.	16D	.	.
V;	4DD;	4AA;	4C#;	4E;	4A;
V7b/IV	4GG	4FF#	4D	4A	4c
=15	=15	=15	=15	=15	=15
IV	4CC	4.GG	4D	4G	4B
IV	4CC	.	4BB	4D	4G
.	.	8FF#	.	.	.
ii	4AA	4EE	4E	4G	4B
V	4DD	8AA	4E	4A	4c#y
.	.	8GG	.	.	.
=16	=16	=16	=16	=16	=16
Ib	4GG	8FF#	4D	4.A	4d
.	.	8DD	.	.	.
V	4DD	4AA	4C#	.	4e
.	.	.	.	8G	.
I;	4GG;	4DD;	4D;	4F#;	4d;
==	==	==	==	==	==
*-	*-	*-	*-	*-	*-
!!!YOR: Ludwig Erk, Peters Editions of 1850, 1865; revised in light of
!!!YOR: Friedrich Smend, Peters Edition of 1932 & Albert Riemenschneider, 1941.
!!!RDT: 1987 September
!!!YER: 1995 March 1
!!chor2scor: -l 3 -s 0.6 -o %b.pmx
!!!ONB1: Text by Georg Niege; 16th Century secular melody, first appears 
!!!ONB2: in sacred use in Neu Catechismus-Gesangbüchlein, Hamburg, 1598. 
!!!YEC: Copyright 1994, David Huron
!!!YEN: United States of America
!!!SMA: 371 Bach Chorales, edited by Ludwig Erk, C.F. Peters
!!!PDT: 1850, 1865
